X: 4322
M: 2/4
L: 1/16
K: F
[|\
f2e2d2c2 | e2dc B4 | A2FA d4 | G2EG c4 |\
f2e2d2c2 | e2dc B4 | A2(Bc) defg | Te4 {de}f2z2 |]
|:\
f2e2d2c2 | e2dc B4  A2(Bc) defg | Te4 {de}f2z2 :|


